assets/components_previews/disclosure/light/accordion.svg

<svg width="320" height="232" viewBox="0 0 320 232" fill="none" xmlns="http://www.w3.org/2000/svg">
<g filter="url(#filter0_dd_10061_23119)">
<g clip-path="url(#clip0_10061_23119)">
<rect x="52" y="60" width="216" height="112" rx="12" fill="white"/>
<mask id="path-2-inside-1_10061_23119" fill="white">
<path d="M52 60H268V96H52V60Z"/>
</mask>
<path d="M268 95H52V97H268V95Z" fill="#F4F0FE" mask="url(#path-2-inside-1_10061_23119)"/>
<rect x="68" y="73" width="138" height="10" rx="5" fill="#D4CAFE"/>
<path opacity="0.4" d="M243.392 76.9407C243.5 77.1797 243.738 77.3333 244 77.3333H252C252.262 77.3333 252.5 77.1796 252.608 76.9406C252.716 76.7016 252.673 76.4216 252.5 76.2251L252.499 76.224C252.475 76.1974 252.407 76.1217 252.365 76.0757C252.281 75.9822 252.159 75.8493 252.01 75.6901C251.712 75.3722 251.302 74.9465 250.857 74.519C250.414 74.0942 249.923 73.6548 249.465 73.3173C249.236 73.1489 249.001 72.9951 248.774 72.8808C248.56 72.7735 248.287 72.6667 248 72.6667C247.713 72.6667 247.44 72.7735 247.226 72.8808C246.999 72.9951 246.764 73.1489 246.535 73.3173C246.077 73.6548 245.586 74.0943 245.143 74.519C244.698 74.9465 244.288 75.3723 243.99 75.6901C243.841 75.8494 243.719 75.9823 243.635 76.0757C243.593 76.1219 243.525 76.1977 243.502 76.224L243.501 76.2248C243.327 76.4213 243.285 76.7016 243.392 76.9407Z" fill="#D4CAFE"/>
<path d="M243.392 79.0593C243.5 78.8203 243.738 78.6667 244 78.6667H252C252.262 78.6667 252.5 78.8204 252.608 79.0594C252.716 79.2984 252.673 79.5784 252.5 79.7749L252.499 79.776C252.475 79.8026 252.407 79.8783 252.365 79.9243C252.281 80.0177 252.159 80.1507 252.01 80.3099C251.712 80.6277 251.302 81.0535 250.857 81.481C250.414 81.9057 249.923 82.3451 249.465 82.6827C249.236 82.8511 249.001 83.0049 248.774 83.1191C248.56 83.2265 248.287 83.3333 248 83.3333C247.713 83.3333 247.44 83.2265 247.226 83.1191C246.999 83.0049 246.764 82.8511 246.535 82.6827C246.077 82.3451 245.586 81.9057 245.143 81.481C244.698 81.0535 244.288 80.6277 243.99 80.3099C243.841 80.1506 243.719 80.0177 243.635 79.9243C243.593 79.8781 243.525 79.8023 243.502 79.776L243.501 79.7751C243.327 79.5787 243.285 79.2984 243.392 79.0593Z" fill="#D4CAFE"/>
<rect x="68" y="109" width="125" height="10" rx="5" fill="#D4CAFE"/>
<path d="M243.392 118.941C243.5 119.18 243.738 119.333 244 119.333H252C252.262 119.333 252.5 119.18 252.608 118.941C252.716 118.702 252.673 118.422 252.5 118.225L252.499 118.224C252.475 118.197 252.407 118.122 252.365 118.076C252.281 117.982 252.159 117.849 252.01 117.69C251.712 117.372 251.302 116.946 250.857 116.519C250.414 116.094 249.923 115.655 249.465 115.317C249.236 115.149 249.001 114.995 248.774 114.881C248.56 114.773 248.287 114.667 248 114.667C247.713 114.667 247.44 114.773 247.226 114.881C246.999 114.995 246.764 115.149 246.535 115.317C246.077 115.655 245.586 116.094 245.143 116.519C244.698 116.947 244.288 117.372 243.99 117.69C243.841 117.849 243.719 117.982 243.635 118.076C243.593 118.122 243.525 118.198 243.502 118.224L243.501 118.225C243.327 118.421 243.285 118.702 243.392 118.941Z" fill="#D4CAFE"/>
<path opacity="0.4" d="M243.392 109.059C243.5 108.82 243.738 108.667 244 108.667L252 108.667C252.262 108.667 252.5 108.82 252.608 109.059C252.716 109.298 252.673 109.578 252.5 109.775L252.499 109.776C252.475 109.803 252.407 109.878 252.365 109.924C252.281 110.018 252.159 110.151 252.01 110.31C251.712 110.628 251.302 111.053 250.857 111.481C250.414 111.906 249.923 112.345 249.465 112.683C249.236 112.851 249.001 113.005 248.774 113.119C248.56 113.227 248.287 113.333 248 113.333C247.713 113.333 247.44 113.227 247.226 113.119C246.999 113.005 246.764 112.851 246.535 112.683C246.077 112.345 245.586 111.906 245.143 111.481C244.698 111.053 244.288 110.628 243.99 110.31C243.841 110.151 243.719 110.018 243.635 109.924C243.593 109.878 243.525 109.802 243.502 109.776L243.501 109.775C243.327 109.579 243.285 109.298 243.392 109.059Z" fill="#D4CAFE"/>
<rect x="68" y="129" width="152" height="10" rx="5" fill="#EBE4FF"/>
<rect x="68" y="149" width="125" height="10" rx="5" fill="#EBE4FF"/>
</g>
</g>
<defs>
<filter id="filter0_dd_10061_23119" x="32" y="52" width="256" height="152" filterUnits="userSpaceOnUse" color-interpolation-filters="sRGB">
<feFlood flood-opacity="0" result="BackgroundImageFix"/>
<feColorMatrix in="SourceAlpha" type="matrix" values="0 0 0 0 0 0 0 0 0 0 0 0 0 0 0 0 0 0 127 0" result="hardAlpha"/>
<feOffset dy="12"/>
<feGaussianBlur stdDeviation="10"/>
<feComposite in2="hardAlpha" operator="out"/>
<feColorMatrix type="matrix" values="0 0 0 0 0 0 0 0 0 0 0 0 0 0 0 0 0 0 0.03 0"/>
<feBlend mode="normal" in2="BackgroundImageFix" result="effect1_dropShadow_10061_23119"/>
<feColorMatrix in="SourceAlpha" type="matrix" values="0 0 0 0 0 0 0 0 0 0 0 0 0 0 0 0 0 0 127 0" result="hardAlpha"/>
<feOffset dy="2"/>
<feGaussianBlur stdDeviation="3"/>
<feComposite in2="hardAlpha" operator="out"/>
<feColorMatrix type="matrix" values="0 0 0 0 0 0 0 0 0 0 0 0 0 0 0 0 0 0 0.05 0"/>
<feBlend mode="normal" in2="effect1_dropShadow_10061_23119" result="effect2_dropShadow_10061_23119"/>
<feBlend mode="normal" in="SourceGraphic" in2="effect2_dropShadow_10061_23119" result="shape"/>
</filter>
<clipPath id="clip0_10061_23119">
<rect x="52" y="60" width="216" height="112" rx="12" fill="white"/>
</clipPath>
</defs>
</svg>

<svg xmlns="http://www.w3.org/2000/svg" width="320" height="232" fill="none" viewBox="0 0 320 232"><g filter="url(#a)"><g clip-path="url(#b)"><rect width="216" height="112" x="52" y="60" fill="#fff" rx="12"/><mask id="c" fill="#fff"><path d="M52 60h216v36H52z"/></mask><path fill="#F4F0FE" d="M268 95H52v2h216z" mask="url(#c)"/><rect width="138" height="10" x="68" y="73" fill="#D4CAFE" rx="5"/><path fill="#D4CAFE" d="M243.392 76.94a.67.67 0 0 0 .608.393h8a.668.668 0 0 0 .5-1.108l-.001-.001-.134-.148a32 32 0 0 0-1.508-1.557 15 15 0 0 0-1.392-1.202 5 5 0 0 0-.691-.436c-.214-.108-.487-.214-.774-.214s-.56.106-.774.214a5 5 0 0 0-.691.436c-.458.338-.949.777-1.392 1.202a32 32 0 0 0-1.641 1.705h-.001a.67.67 0 0 0-.109.717" opacity=".4"/><path fill="#D4CAFE" d="M243.392 79.06a.67.67 0 0 1 .608-.393h8a.668.668 0 0 1 .5 1.108l-.001.001-.134.148a32 32 0 0 1-1.508 1.557c-.443.425-.934.864-1.392 1.202a5 5 0 0 1-.691.436c-.214.108-.487.214-.774.214s-.56-.106-.774-.214a5 5 0 0 1-.691-.436 15 15 0 0 1-1.392-1.202 32 32 0 0 1-1.641-1.705h-.001a.67.67 0 0 1-.109-.717"/><rect width="125" height="10" x="68" y="109" fill="#D4CAFE" rx="5"/><path fill="#D4CAFE" d="M243.392 118.941a.67.67 0 0 0 .608.392h8a.667.667 0 0 0 .5-1.108l-.001-.001-.134-.148a32 32 0 0 0-1.508-1.557 15 15 0 0 0-1.392-1.202 5 5 0 0 0-.691-.436c-.214-.108-.487-.214-.774-.214s-.56.106-.774.214a5 5 0 0 0-.691.436c-.458.338-.949.777-1.392 1.202a32 32 0 0 0-1.641 1.705l-.001.001a.67.67 0 0 0-.109.716"/><path fill="#D4CAFE" d="M243.392 109.059a.67.67 0 0 1 .608-.392h8a.667.667 0 0 1 .5 1.108l-.001.001-.134.148a32 32 0 0 1-1.508 1.557c-.443.425-.934.864-1.392 1.202a5 5 0 0 1-.691.436c-.214.108-.487.214-.774.214s-.56-.106-.774-.214a5 5 0 0 1-.691-.436 15 15 0 0 1-1.392-1.202 32 32 0 0 1-1.641-1.705l-.001-.001a.67.67 0 0 1-.109-.716" opacity=".4"/><rect width="152" height="10" x="68" y="129" fill="#EBE4FF" rx="5"/><rect width="125" height="10" x="68" y="149" fill="#EBE4FF" rx="5"/></g></g><defs><clipPath id="b"><rect width="216" height="112" x="52" y="60" fill="#fff" rx="12"/></clipPath><filter id="a" width="256" height="152" x="32" y="52" color-interpolation-filters="sRGB" filterUnits="userSpaceOnUse"><feFlood flood-opacity="0" result="BackgroundImageFix"/><feColorMatrix in="SourceAlpha" result="hardAlpha" values="0 0 0 0 0 0 0 0 0 0 0 0 0 0 0 0 0 0 127 0"/><feOffset dy="12"/><feGaussianBlur stdDeviation="10"/><feComposite in2="hardAlpha" operator="out"/><feColorMatrix values="0 0 0 0 0 0 0 0 0 0 0 0 0 0 0 0 0 0 0.03 0"/><feBlend in2="BackgroundImageFix" result="effect1_dropShadow_10061_23119"/><feColorMatrix in="SourceAlpha" result="hardAlpha" values="0 0 0 0 0 0 0 0 0 0 0 0 0 0 0 0 0 0 127 0"/><feOffset dy="2"/><feGaussianBlur stdDeviation="3"/><feComposite in2="hardAlpha" operator="out"/><feColorMatrix values="0 0 0 0 0 0 0 0 0 0 0 0 0 0 0 0 0 0 0.05 0"/><feBlend in2="effect1_dropShadow_10061_23119" result="effect2_dropShadow_10061_23119"/><feBlend in="SourceGraphic" in2="effect2_dropShadow_10061_23119" result="shape"/></filter></defs></svg>
